SVG_Azure_Grouped/Data/HPC Cache.svg

<?xml version="1.0" encoding="UTF-8" standalone="no"?>
<!-- Generated by Microsoft Visio, SVG Export HPC Cache.svg Page-1 -->

<svg
   xmlns:dc="http://purl.org/dc/elements/1.1/"
   xmlns:cc="http://creativecommons.org/ns#"
   xmlns:rdf="http://www.w3.org/1999/02/22-rdf-syntax-ns#"
   xmlns:svg="http://www.w3.org/2000/svg"
   xmlns="http://www.w3.org/2000/svg"
   xmlns:sodipodi="http://sodipodi.sourceforge.net/DTD/sodipodi-0.dtd"
   xmlns:inkscape="http://www.inkscape.org/namespaces/inkscape"
   width="0.7873624in"
   height="0.70864832in"
   viewBox="0 0 56.690001 51.022524"
   xml:space="preserve"
   class="st6"
   version="1.1"
   id="svg50"
   sodipodi:docname="HPC Cache.svg"
   style="font-size:12px;overflow:visible;color-interpolation-filters:sRGB;fill:none;fill-rule:evenodd;stroke-linecap:square;stroke-miterlimit:3"
   inkscape:version="0.92.5 (2060ec1f9f, 2020-04-08)"><metadata
   id="metadata54"><rdf:RDF><cc:Work
       rdf:about=""><dc:format>image/svg+xml</dc:format><dc:type
         rdf:resource="http://purl.org/dc/dcmitype/StillImage" /></cc:Work></rdf:RDF></metadata><sodipodi:namedview
   pagecolor="#ffffff"
   bordercolor="#666666"
   borderopacity="1"
   objecttolerance="10"
   gridtolerance="10"
   guidetolerance="10"
   inkscape:pageopacity="0"
   inkscape:pageshadow="2"
   inkscape:window-width="640"
   inkscape:window-height="480"
   id="namedview52"
   showgrid="false"
   inkscape:zoom="1.4868532"
   inkscape:cx="37.795396"
   inkscape:cy="34.00379"
   inkscape:window-x="0"
   inkscape:window-y="0"
   inkscape:window-maximized="0"
   inkscape:current-layer="svg50" />
	<style
   type="text/css"
   id="style2">
	<![CDATA[
		.st1 {fill:url(#grad0-6);stroke:none;stroke-linecap:butt;stroke-width:34}
		.st2 {fill:#50e6ff;stroke:none;stroke-linecap:butt;stroke-width:34}
		.st3 {fill:#ffffff;stroke:none;stroke-linecap:butt;stroke-width:34}
		.st4 {fill:#ffffff;fill-opacity:0.8;stroke:none;stroke-linecap:butt;stroke-width:34}
		.st5 {fill:#ffffff;fill-opacity:0.6;stroke:none;stroke-linecap:butt;stroke-width:34}
		.st6 {fill:none;fill-rule:evenodd;font-size:12px;overflow:visible;stroke-linecap:square;stroke-miterlimit:3}
	]]>
	</style>

	<defs
   id="Patterns_And_Gradients">
		<linearGradient
   id="grad0-6"
   x1="0"
   y1="93.561129"
   x2="47.755721"
   y2="93.561129"
   gradientTransform="scale(1.1870829,0.84240116)"
   gradientUnits="userSpaceOnUse">
			<stop
   offset="0"
   stop-color="#0078d4"
   stop-opacity="1"
   id="stop4" />
			<stop
   offset="1"
   stop-color="#5ea0ef"
   stop-opacity="1"
   id="stop6" />
		</linearGradient>
	</defs>
	<g
   id="g48"
   transform="translate(-34,-34.001791)">
		<title
   id="title10">Page-1</title>
		<g
   id="group19383-1"
   transform="translate(34,-34.0157)">
			<title
   id="title12">HPC Cache.19383</title>
			<g
   id="group19384-2">
				<title
   id="title14">Sheet.19384</title>
				<g
   id="shape19385-3"
   transform="translate(0,-10.7986)">
					<title
   id="title16">Sheet.19385</title>
					<path
   d="M 56.69,106.44 A 12.8945,12.6639 -180 0 0 45.64,94.19 16.1858,15.8964 -180 0 0 29.1,78.82 16.5984,16.3016 -180 0 0 13.28,89.57 15.2976,15.0241 -180 0 0 0,104.2 15.5496,15.2715 -180 0 0 15.96,119.04 c 0.48,0 0.95,-0.02 1.41,-0.06 h 25.85 a 2.45984,2.41585 -180 0 0 0.68,-0.1 13.0079,12.7752 -180 0 0 12.79,-12.44 z"
   class="st1"
   id="path18"
   inkscape:connector-curvature="0"
   style="fill:url(#grad0-6);stroke:none;stroke-width:34;stroke-linecap:butt" />
				</g>
				<g
   id="shape19386-7"
   transform="translate(23.1496,-2.46534)">
					<title
   id="title21">Sheet.19386</title>
					<path
   d="m 0,117.19 a 1.88981,1.85601 -180 0 0 1.89,1.85 h 24.57 a 1.88981,1.85601 -180 0 0 1.89,-1.85 V 93.06 A 1.88981,1.85601 -180 0 0 26.46,91.2 H 1.89 A 1.88981,1.85601 -180 0 0 0,93.06 Z"
   class="st2"
   id="path23"
   inkscape:connector-curvature="0"
   style="fill:#50e6ff;stroke:none;stroke-width:34;stroke-linecap:butt" />
				</g>
				<g
   id="shape19387-9"
   transform="translate(21.7764)">
					<title
   id="title26">Sheet.19387</title>
					<path
   d="m 0,117.19 a 1.88981,1.85601 -180 0 0 1.89,1.85 H 29.2 a 1.88981,1.85601 -180 0 0 1.89,-1.85 V 90.37 A 1.88981,1.85601 -180 0 0 29.2,88.51 H 1.89 A 1.88981,1.85601 -180 0 0 0,90.37 Z"
   class="st2"
   id="path28"
   inkscape:connector-curvature="0"
   style="fill:#50e6ff;stroke:none;stroke-width:34;stroke-linecap:butt" />
				</g>
				<g
   id="shape19388-11"
   transform="translate(26.4346,-21.1271)">
					<title
   id="title31">Sheet.19388</title>
					<path
   d="m 0,118.12 a 0.944904,0.928005 -180 0 0 0.944882,0.92798 L 21.94,119.04 a 0.944904,0.928005 -180 0 0 0.944882,-0.92798 L 22.89,114.73 a 0.944904,0.928005 -180 0 0 -0.944882,-0.92798 L 0.94,113.8 a 0.944904,0.928005 -180 0 0 -0.944882,0.92798 z"
   class="st3"
   id="path33"
   inkscape:connector-curvature="0"
   style="fill:#ffffff;stroke:none;stroke-width:34;stroke-linecap:butt" />
				</g>
				<g
   id="shape19389-13"
   transform="translate(26.4346,-12.6484)">
					<title
   id="title36">Sheet.19389</title>
					<path
   d="m 0,118.12 a 0.944904,0.928005 -180 0 0 0.944882,0.92798 L 21.94,119.04 a 0.944904,0.928005 -180 0 0 0.944882,-0.92798 L 22.89,114.73 a 0.944904,0.928005 -180 0 0 -0.944882,-0.92798 L 0.94,113.8 a 0.944904,0.928005 -180 0 0 -0.944882,0.92798 z"
   class="st4"
   id="path38"
   inkscape:connector-curvature="0"
   style="fill:#ffffff;fill-opacity:0.8;stroke:none;stroke-width:34;stroke-linecap:butt" />
				</g>
				<g
   id="shape19390-15"
   transform="translate(26.4346,-4.16974)">
					<title
   id="title41">Sheet.19390</title>
					<path
   d="m 0,118.12 a 0.944904,0.928005 -180 0 0 0.944882,0.92798 L 21.94,119.04 a 0.944904,0.928005 -180 0 0 0.944882,-0.92798 L 22.89,114.73 a 0.944904,0.928005 -180 0 0 -0.944882,-0.92798 L 0.94,113.8 a 0.944904,0.928005 -180 0 0 -0.944882,0.92798 z"
   class="st5"
   id="path43"
   inkscape:connector-curvature="0"
   style="fill:#ffffff;fill-opacity:0.6;stroke:none;stroke-width:34;stroke-linecap:butt" />
				</g>
			</g>
		</g>
	</g>
</svg>

<?xml version="1.0" encoding="UTF-8" standalone="no"?>
<!DOCTYPE svg PUBLIC "-//W3C//DTD SVG 1.1//EN" "http://www.w3.org/Graphics/SVG/1.1/DTD/svg11.dtd">
<!-- Generated by Microsoft Visio, SVG Export HPC Cache.svg Page-1 -->
<svg xmlns="http://www.w3.org/2000/svg" xmlns:xlink="http://www.w3.org/1999/xlink" xmlns:ev="http://www.w3.org/2001/xml-events"
		width="1.73185in" height="1.65338in" viewBox="0 0 124.693 119.043" xml:space="preserve" color-interpolation-filters="sRGB"
		class="st6">
	<style type="text/css">
	<![CDATA[
		.st1 {fill:url(#grad0-6);stroke:none;stroke-linecap:butt;stroke-width:34}
		.st2 {fill:#50e6ff;stroke:none;stroke-linecap:butt;stroke-width:34}
		.st3 {fill:#ffffff;stroke:none;stroke-linecap:butt;stroke-width:34}
		.st4 {fill:#ffffff;fill-opacity:0.8;stroke:none;stroke-linecap:butt;stroke-width:34}
		.st5 {fill:#ffffff;fill-opacity:0.6;stroke:none;stroke-linecap:butt;stroke-width:34}
		.st6 {fill:none;fill-rule:evenodd;font-size:12px;overflow:visible;stroke-linecap:square;stroke-miterlimit:3}
	]]>
	</style>

	<defs id="Patterns_And_Gradients">
		<linearGradient id="grad0-6" x1="0" y1="0" x2="1" y2="0" gradientTransform="rotate(-90 0.5 0.5)">
			<stop offset="0" stop-color="#0078d4" stop-opacity="1"/>
			<stop offset="1" stop-color="#5ea0ef" stop-opacity="1"/>
		</linearGradient>
	</defs>
	<g>
		<title>Page-1</title>
		<g id="group18947-1" transform="translate(34,-34.0157)">
			<title>HPC Cache.18947</title>
			<g id="group18948-2">
				<title>Sheet.18948</title>
				<g id="shape18949-3" transform="translate(0,-10.7986)">
					<title>Sheet.18949</title>
					<path d="M56.69 106.44 A12.8945 12.6639 -180 0 0 45.64 94.19 A16.1858 15.8964 -180 0 0 29.1 78.82 A16.5984 16.3016
								 -180 0 0 13.28 89.57 A15.2976 15.0241 -180 0 0 0 104.2 A15.5496 15.2715 -180 0 0 15.96 119.04 C16.44
								 119.04 16.91 119.02 17.37 118.98 L43.22 118.98 A2.45984 2.41585 -180 0 0 43.9 118.88 A13.0079 12.7752
								 -180 0 0 56.69 106.44 Z" class="st1"/>
				</g>
				<g id="shape18950-7" transform="translate(23.1496,-2.46534)">
					<title>Sheet.18950</title>
					<path d="M0 117.19 A1.88981 1.85601 -180 0 0 1.89 119.04 L26.46 119.04 A1.88981 1.85601 -180 0 0 28.35 117.19
								 L28.35 93.06 A1.88981 1.85601 -180 0 0 26.46 91.2 L1.89 91.2 A1.88981 1.85601 -180 0 0 0 93.06 L0
								 117.19 Z" class="st2"/>
				</g>
				<g id="shape18951-9" transform="translate(21.7764,2.70006E-13)">
					<title>Sheet.18951</title>
					<path d="M0 117.19 A1.88981 1.85601 -180 0 0 1.89 119.04 L29.2 119.04 A1.88981 1.85601 -180 0 0 31.09 117.19
								 L31.09 90.37 A1.88981 1.85601 -180 0 0 29.2 88.51 L1.89 88.51 A1.88981 1.85601 -180 0 0 -0 90.37
								 L0 117.19 Z" class="st2"/>
				</g>
				<g id="shape18952-11" transform="translate(26.4346,-21.1271)">
					<title>Sheet.18952</title>
					<path d="M0 118.12 a0.944904 0.928005 -180 0 0 0.944882 0.927983 L21.94 119.04 a0.944904 0.928005 -180 0 0 0.944882
								 -0.927983 L22.89 114.73 a0.944904 0.928005 -180 0 0 -0.944882 -0.927983 L0.94 113.8 a0.944904 0.928005
								 -180 0 0 -0.944882 0.927983 L0 118.12 Z" class="st3"/>
				</g>
				<g id="shape18953-13" transform="translate(26.4346,-12.6484)">
					<title>Sheet.18953</title>
					<path d="M0 118.12 a0.944904 0.928005 -180 0 0 0.944882 0.927983 L21.94 119.04 a0.944904 0.928005 -180 0 0 0.944882
								 -0.927983 L22.89 114.73 a0.944904 0.928005 -180 0 0 -0.944882 -0.927983 L0.94 113.8 a0.944904 0.928005
								 -180 0 0 -0.944882 0.927983 L0 118.12 Z" class="st4"/>
				</g>
				<g id="shape18954-15" transform="translate(26.4346,-4.16974)">
					<title>Sheet.18954</title>
					<path d="M0 118.12 a0.944904 0.928005 -180 0 0 0.944882 0.927983 L21.94 119.04 a0.944904 0.928005 -180 0 0 0.944882
								 -0.927983 L22.89 114.73 a0.944904 0.928005 -180 0 0 -0.944882 -0.927983 L0.94 113.8 a0.944904 0.928005
								 -180 0 0 -0.944882 0.927983 L0 118.12 Z" class="st5"/>
				</g>
			</g>
		</g>
	</g>
</svg>
